other/SuperUser.svg

<?xml version="1.0" encoding="UTF-8" standalone="no"?>
<svg
   xmlns:dc="http://purl.org/dc/elements/1.1/"
   xmlns:cc="http://creativecommons.org/ns#"
   xmlns:rdf="http://www.w3.org/1999/02/22-rdf-syntax-ns#"
   xmlns:svg="http://www.w3.org/2000/svg"
   xmlns="http://www.w3.org/2000/svg"
   xmlns:sodipodi="http://sodipodi.sourceforge.net/DTD/sodipodi-0.dtd"
   xmlns:inkscape="http://www.inkscape.org/namespaces/inkscape"
   width="48"
   height="48"
   viewBox="0 0 48 48"
   version="1.1"
   id="svg4"
   sodipodi:docname="SuperUser.svg"
   inkscape:version="0.92.3 (2405546, 2018-03-11)">
  <metadata
     id="metadata10">
    <rdf:RDF>
      <cc:Work
         rdf:about="">
        <dc:format>image/svg+xml</dc:format>
        <dc:type
           rdf:resource="http://purl.org/dc/dcmitype/StillImage" />
        <dc:title />
      </cc:Work>
    </rdf:RDF>
  </metadata>
  <defs
     id="defs8" />
  <sodipodi:namedview
     pagecolor="#858585"
     bordercolor="#666666"
     borderopacity="1"
     objecttolerance="10"
     gridtolerance="10"
     guidetolerance="10"
     inkscape:pageopacity="0"
     inkscape:pageshadow="2"
     inkscape:window-width="1920"
     inkscape:window-height="1046"
     id="namedview6"
     showgrid="false"
     inkscape:zoom="5.5979287"
     inkscape:cx="-3.1885393"
     inkscape:cy="24.004053"
     inkscape:window-x="0"
     inkscape:window-y="0"
     inkscape:window-maximized="1"
     inkscape:current-layer="svg4" />
  <path
     d="M 7 5 C 5.892 5 5 5.892 5 7 L 5 41 C 5 42.108 5.892 43 7 43 L 41 43 C 42.108 43 43 42.108 43 41 L 43 7 C 43 5.892 42.108 5 41 5 L 7 5 z M 21.535156 9.0175781 C 21.970541 9.0076371 22.433621 9.1705152 22.917969 9.5097656 C 23.79777 10.126002 23.869478 11.5036 23.175781 14.40625 L 22.71875 16.324219 L 25.6875 16.324219 C 28.149933 16.324219 28.658203 16.235732 28.658203 15.806641 C 28.658203 15.521998 28.900792 14.221468 29.197266 12.917969 C 30.032513 9.2456713 31.603304 8.1153207 33.546875 9.7871094 L 34.472656 10.583984 L 34.042969 12.703125 C 33.806415 13.869122 33.532764 15.161719 33.433594 15.574219 C 33.259337 16.299059 33.333377 16.324219 35.644531 16.324219 C 37.942751 16.324219 39.215001 16.676275 39.736328 17.457031 C 40.181504 18.123748 40.0016 19.220382 39.300781 20.111328 C 38.642077 20.948735 38.464429 20.990234 35.480469 20.990234 L 32.351562 20.990234 L 32.03125 22.240234 C 31.855915 22.927734 31.61456 24.014583 31.494141 24.65625 C 31.373723 25.297916 31.201658 26.085416 31.111328 26.40625 C 30.964257 26.928595 31.239051 26.990234 33.75 26.990234 C 36.923186 26.990234 37.658203 27.413331 37.658203 29.242188 C 37.658203 31.030816 36.44225 31.65625 32.96875 31.65625 C 29.660674 31.65625 29.971318 31.376419 29.285156 34.990234 C 28.642845 38.373098 26.615785 39.947816 24.992188 38.324219 C 24.126633 37.458666 24.189365 35.553881 25.193359 32.240234 C 25.352628 31.714569 25.071301 31.65625 22.347656 31.65625 C 20.00288 31.65625 19.324219 31.759063 19.324219 32.115234 C 19.324219 32.367746 19.076563 33.673345 18.773438 35.015625 C 17.933934 38.733062 16.26429 39.959601 14.476562 38.171875 C 13.530152 37.225465 13.522524 37.147151 14.164062 34.490234 C 14.883256 31.511705 14.99609 31.65625 11.992188 31.65625 C 9.7699658 31.65625 9.2137581 31.54579 8.6582031 30.990234 C 7.8182621 30.150294 7.8056881 28.959488 8.6269531 27.943359 C 9.1964961 27.238681 9.6058353 27.13948 12.53125 26.990234 L 15.796875 26.824219 L 16.224609 24.65625 C 16.459109 23.464583 16.730725 22.152734 16.828125 21.740234 C 17.000995 21.008124 16.938328 20.990234 14.216797 20.990234 C 11.061057 20.990234 10.324219 20.564615 10.324219 18.738281 C 10.324219 16.948593 11.539382 16.324219 15.019531 16.324219 L 17.958984 16.324219 L 18.544922 13.574219 C 19.172995 10.622315 20.229004 9.0474011 21.535156 9.0175781 z M 21.761719 20.990234 L 21.208984 23.5 C 20.390787 27.223589 20.24183 26.990234 23.464844 26.990234 L 26.269531 26.990234 L 26.625 25.332031 C 26.82068 24.419604 27.077369 23.069604 27.195312 22.332031 L 27.410156 20.990234 L 24.585938 20.990234 L 21.761719 20.990234 z "
     id="rect2"
     style="fill:#ffffff" />
</svg>

<svg width="48" height="48" version="1.1" viewBox="0 0 48 48" xmlns="http://www.w3.org/2000/svg">
 <path d="m7 5c-1.108 0-2 0.892-2 2v34c0 1.108 0.892 2 2 2h34c1.108 0 2-0.892 2-2v-34c0-1.108-0.892-2-2-2h-34zm14.535 4.0176c0.43538-0.009941 0.89846 0.15294 1.3828 0.49219 0.8798 0.61624 0.95151 1.9938 0.25781 4.8965l-0.45703 1.918h2.9688c2.4624 0 2.9707-0.088487 2.9707-0.51758 0-0.28464 0.24259-1.5852 0.53906-2.8887 0.83525-3.6723 2.406-4.8026 4.3496-3.1309l0.92578 0.79687-0.42969 2.1191c-0.23655 1.166-0.5102 2.4586-0.60938 2.8711-0.17426 0.72484-0.10022 0.75 2.2109 0.75 2.2982 0 3.5705 0.35206 4.0918 1.1328 0.44518 0.66672 0.26527 1.7634-0.43555 2.6543-0.6587 0.83741-0.83635 0.87891-3.8203 0.87891h-3.1289l-0.32031 1.25c-0.17534 0.6875-0.41669 1.7743-0.53711 2.416-0.12042 0.64167-0.29248 1.4292-0.38281 1.75-0.14707 0.52234 0.12772 0.58398 2.6387 0.58398 3.1732 0 3.9082 0.4231 3.9082 2.252 0 1.7886-1.216 2.4141-4.6895 2.4141-3.3081 0-2.9974-0.27983-3.6836 3.334-0.64231 3.3829-2.6694 4.9576-4.293 3.334-0.86556-0.86555-0.80282-2.7703 0.20117-6.084 0.15927-0.52566-0.12206-0.58398-2.8457-0.58398-2.3448 0-3.0234 0.10281-3.0234 0.45898 0 0.25251-0.24766 1.5581-0.55078 2.9004-0.8395 3.7174-2.5091 4.944-4.2969 3.1562-0.94641-0.94641-0.95404-1.0247-0.3125-3.6816 0.71919-2.9785 0.83203-2.834-2.1719-2.834-2.2222 0-2.7784-0.11046-3.334-0.66602-0.83994-0.83994-0.85252-2.0307-0.03125-3.0469 0.56954-0.70468 0.97888-0.80388 3.9043-0.95312l3.2656-0.16602 0.42773-2.168c0.2345-1.1917 0.50612-2.5035 0.60352-2.916 0.17287-0.73211 0.1102-0.75-2.6113-0.75-3.1557 0-3.8926-0.42562-3.8926-2.252 0-1.7897 1.2152-2.4141 4.6953-2.4141h2.9395l0.58594-2.75c0.62807-2.9519 1.6841-4.5268 2.9902-4.5566zm0.22656 11.973-0.55274 2.5098c-0.8182 3.7236-0.96715 3.4902 2.2559 3.4902h2.8047l0.35547-1.6582c0.19568-0.91243 0.45237-2.2624 0.57031-3l0.21484-1.3418h-2.8242-2.8242z" fill="#fff"/>
</svg>
